src/assets/icons/hand-default.svg

<svg width="100%" height="100%" viewBox="0 0 145 193" fill="none" xmlns="http://www.w3.org/2000/svg">
<path d="M21 63.5L4 30.5L2 11L11.5 2.5L23.5 4.5L37 22L58.5 55L62 48.5L71.5 47L81.5 48.5L91 62L94 58L107.5 55L116 62L122 72L134 73.5L142 87.5V116L135 146.5L142 159L137 172L120 184L96 190L77 188L65.5 180.5L60 165.5L33 146.5L23.5 132.5L19.5 122.5V107.5L22 99L30.5 95L34.5 93.5L30.5 84.5L26 73.5L21 63.5Z" fill="white"/>
<path d="M10.4739 0.685141C6.97387 1.78514 3.17387 5.18514 1.17387 9.18514C-1.02613 13.2851 -0.026128 24.2851 3.27387 33.0851C4.77387 36.9851 9.47387 46.5851 13.8739 54.5851C20.8739 67.6851 30.8739 89.8851 30.8739 92.5851C30.8739 93.1851 29.7739 93.6851 28.4739 93.6851C25.0739 93.6851 19.6739 97.6851 17.6739 101.685C14.2739 108.385 16.4739 125.985 21.9739 136.785C26.2739 145.385 39.0739 156.685 53.6739 164.685C56.9739 166.585 57.8739 167.585 57.8739 169.685C57.8739 173.585 62.6739 182.385 66.2739 185.185C77.8739 194.085 97.2739 194.785 117.574 187.185C133.674 181.085 144.474 168.485 142.274 158.385C141.474 154.685 138.374 148.085 136.974 147.185C136.374 146.885 136.974 143.685 138.474 139.485C142.374 127.785 144.174 116.285 144.274 102.185C144.374 88.3851 143.474 83.9851 139.274 77.7851C135.874 72.6851 132.174 70.6851 126.274 70.6851C121.174 70.6851 121.174 70.6851 119.974 66.5851C118.374 61.2851 112.074 55.0851 106.874 53.6851C102.174 52.3851 98.6739 53.1851 93.9739 56.5851L91.0739 58.6851L88.4739 54.6851C85.0739 49.4851 78.9739 45.5851 73.4739 44.9851C67.4739 44.2851 64.5739 45.0851 60.3739 48.7851C58.3739 50.5851 56.6739 51.7851 56.4739 51.5851C56.3739 51.3851 53.1739 45.3851 49.4739 38.2851C40.5739 21.2851 36.7739 15.2851 30.5739 8.78514C22.9739 0.985141 17.3739 -1.31486 10.4739 0.685141ZM23.6739 7.58514C30.2739 12.3851 38.0739 24.8851 53.9739 55.6851C56.0739 59.5851 58.0739 62.2851 59.2739 62.4851C60.8739 62.8851 61.0739 62.4851 60.4739 59.3851C59.2739 52.7851 66.2739 47.5851 74.4739 49.1851C79.3739 50.0851 84.1739 54.6851 87.2739 61.6851C88.7739 64.9851 90.3739 67.6851 90.8739 67.6851C91.3739 67.6851 92.7739 65.8851 93.8739 63.6851C96.4739 58.6851 98.9739 57.2851 104.774 57.9851C108.474 58.3851 109.974 59.1851 112.574 62.1851C114.274 64.1851 115.974 67.1851 116.274 68.7851C116.574 70.3851 117.174 72.9851 117.474 74.6851C118.074 77.9851 119.874 78.5851 121.874 76.1851C122.574 75.3851 124.674 74.6851 126.574 74.6851C131.074 74.6851 137.174 80.4851 138.774 86.1851C140.274 91.6851 140.074 113.585 138.374 122.885C136.774 132.385 132.774 144.485 129.074 151.185C124.274 160.085 111.474 166.185 92.2739 168.785C75.7739 170.985 68.1739 168.985 50.5739 157.985C39.0739 150.685 30.0739 142.585 26.3739 136.185C23.0739 130.485 20.8739 121.085 20.8739 112.485C20.8739 102.885 23.3739 98.3851 29.0739 97.8851C32.6739 97.5851 32.7739 97.5851 33.4739 102.285C33.7739 104.785 33.8739 109.585 33.5739 112.785C32.8739 119.285 33.9739 120.985 36.4739 117.185C37.8739 115.085 38.0739 112.985 37.6739 105.885C36.9739 94.8851 32.4739 82.0851 21.9739 61.6851C8.57387 35.5851 6.87387 31.8851 5.27387 25.4851C4.37387 21.9851 3.87387 17.3851 4.17387 14.7851C5.27387 5.18514 15.1739 1.48514 23.6739 7.58514ZM136.374 153.685C140.474 161.585 136.574 171.385 126.774 177.685C116.274 184.485 97.4739 189.285 86.2739 188.185C78.4739 187.385 68.8739 182.985 65.9739 178.785C64.0739 176.185 61.4739 169.685 62.2739 169.685C62.3739 169.685 64.9739 170.585 68.1739 171.685C72.0739 173.085 76.3739 173.685 82.0739 173.685C104.174 173.685 124.674 165.985 131.574 155.085C133.074 152.685 134.474 150.685 134.574 150.685C134.674 150.685 135.474 151.985 136.374 153.685Z" fill="#444444"/>
<path d="M10.4739 0.685141C6.97387 1.78514 3.17387 5.18514 1.17387 9.18514C-1.02613 13.2851 -0.026128 24.2851 3.27387 33.0851C4.77387 36.9851 9.47387 46.5851 13.8739 54.5851C20.8739 67.6851 30.8739 89.8851 30.8739 92.5851C30.8739 93.1851 29.7739 93.6851 28.4739 93.6851C25.0739 93.6851 19.6739 97.6851 17.6739 101.685C14.2739 108.385 16.4739 125.985 21.9739 136.785C26.2739 145.385 39.0739 156.685 53.6739 164.685C56.9739 166.585 57.8739 167.585 57.8739 169.685C57.8739 173.585 62.6739 182.385 66.2739 185.185C77.8739 194.085 97.2739 194.785 117.574 187.185C133.674 181.085 144.474 168.485 142.274 158.385C141.474 154.685 138.374 148.085 136.974 147.185C136.374 146.885 136.974 143.685 138.474 139.485C142.374 127.785 144.174 116.285 144.274 102.185C144.374 88.3851 143.474 83.9851 139.274 77.7851C135.874 72.6851 132.174 70.6851 126.274 70.6851C121.174 70.6851 121.174 70.6851 119.974 66.5851C118.374 61.2851 112.074 55.0851 106.874 53.6851C102.174 52.3851 98.6739 53.1851 93.9739 56.5851L91.0739 58.6851L88.4739 54.6851C85.0739 49.4851 78.9739 45.5851 73.4739 44.9851C67.4739 44.2851 64.5739 45.0851 60.3739 48.7851C58.3739 50.5851 56.6739 51.7851 56.4739 51.5851C56.3739 51.3851 53.1739 45.3851 49.4739 38.2851C40.5739 21.2851 36.7739 15.2851 30.5739 8.78514C22.9739 0.985141 17.3739 -1.31486 10.4739 0.685141ZM23.6739 7.58514C30.2739 12.3851 38.0739 24.8851 53.9739 55.6851C56.0739 59.5851 58.0739 62.2851 59.2739 62.4851C60.8739 62.8851 61.0739 62.4851 60.4739 59.3851C59.2739 52.7851 66.2739 47.5851 74.4739 49.1851C79.3739 50.0851 84.1739 54.6851 87.2739 61.6851C88.7739 64.9851 90.3739 67.6851 90.8739 67.6851C91.3739 67.6851 92.7739 65.8851 93.8739 63.6851C96.4739 58.6851 98.9739 57.2851 104.774 57.9851C108.474 58.3851 109.974 59.1851 112.574 62.1851C114.274 64.1851 115.974 67.1851 116.274 68.7851C116.574 70.3851 117.174 72.9851 117.474 74.6851C118.074 77.9851 119.874 78.5851 121.874 76.1851C122.574 75.3851 124.674 74.6851 126.574 74.6851C131.074 74.6851 137.174 80.4851 138.774 86.1851C140.274 91.6851 140.074 113.585 138.374 122.885C136.774 132.385 132.774 144.485 129.074 151.185C124.274 160.085 111.474 166.185 92.2739 168.785C75.7739 170.985 68.1739 168.985 50.5739 157.985C39.0739 150.685 30.0739 142.585 26.3739 136.185C23.0739 130.485 20.8739 121.085 20.8739 112.485C20.8739 102.885 23.3739 98.3851 29.0739 97.8851C32.6739 97.5851 32.7739 97.5851 33.4739 102.285C33.7739 104.785 33.8739 109.585 33.5739 112.785C32.8739 119.285 33.9739 120.985 36.4739 117.185C37.8739 115.085 38.0739 112.985 37.6739 105.885C36.9739 94.8851 32.4739 82.0851 21.9739 61.6851C8.57387 35.5851 6.87387 31.8851 5.27387 25.4851C4.37387 21.9851 3.87387 17.3851 4.17387 14.7851C5.27387 5.18514 15.1739 1.48514 23.6739 7.58514ZM136.374 153.685C140.474 161.585 136.574 171.385 126.774 177.685C116.274 184.485 97.4739 189.285 86.2739 188.185C78.4739 187.385 68.8739 182.985 65.9739 178.785C64.0739 176.185 61.4739 169.685 62.2739 169.685C62.3739 169.685 64.9739 170.585 68.1739 171.685C72.0739 173.085 76.3739 173.685 82.0739 173.685C104.174 173.685 124.674 165.985 131.574 155.085C133.074 152.685 134.474 150.685 134.574 150.685C134.674 150.685 135.474 151.985 136.374 153.685Z" fill="#444444" fill-opacity="0.2"/>
</svg>

<svg xmlns="http://www.w3.org/2000/svg" xmlns:xlink="http://www.w3.org/1999/xlink" width="100%" height="100%" viewBox="0 0 145 193" fill="none"><path d="M21 63.5l-17-33L2 11l9.5-8.5 12 2L37 22l21.5 33 3.5-6.5 9.5-1.5 10 1.5L91 62l3-4 13.5-3 8.5 7 6 10 12 1.5 8 14V116l-7 30.5 7 12.5-5 13-17 12-24 6-19-2-11.5-7.5-5.5-15-27-19-9.5-14-4-10v-15L22 99l8.5-4 4-1.5-4-9-4.5-11-5-10z" fill="#fff"/><g fill="#444"><use xlink:href="#B"/><use xlink:href="#B" fill-opacity=".2"/></g><defs ><path id="B" d="M10.474.685c-3.5 1.1-7.3 4.5-9.3 8.5-2.2 4.1-1.2 15.1 2.1 23.9 1.5 3.9 6.2 13.5 10.6 21.5 7 13.1 17 35.3 17 38 0 .6-1.1 1.1-2.4 1.1-3.4 0-8.8 4-10.8 8-3.4 6.7-1.2 24.3 4.3 35.1 4.3 8.6 17.1 19.9 31.7 27.9 3.3 1.9 4.2 2.9 4.2 5 0 3.9 4.8 12.7 8.4 15.5 11.6 8.9 31 9.6 51.3 2 16.1-6.1 26.9-18.7 24.7-28.8-.8-3.7-3.9-10.3-5.3-11.2-.6-.3 0-3.5 1.5-7.7 3.9-11.7 5.7-23.2 5.8-37.3.1-13.8-.8-18.2-5-24.4-3.4-5.1-7.1-7.1-13-7.1-5.1 0-5.1 0-6.3-4.1-1.6-5.3-7.9-11.5-13.1-12.9-4.7-1.3-8.2-.5-12.9 2.9l-2.9 2.1-2.6-4c-3.4-5.2-9.5-9.1-15-9.7-6-.7-8.9.1-13.1 3.8-2 1.8-3.7 3-3.9 2.8-.1-.2-3.3-6.2-7-13.3-8.9-17-12.7-23-18.9-29.5-7.6-7.8-13.2-10.1-20.1-8.1zm13.2 6.9c6.6 4.8 14.4 17.3 30.3 48.1 2.1 3.9 4.1 6.6 5.3 6.8 1.6.4 1.8 0 1.2-3.1-1.2-6.6 5.8-11.8 14-10.2 4.9.9 9.7 5.5 12.8 12.5 1.5 3.3 3.1 6 3.6 6s1.9-1.8 3-4c2.6-5 5.1-6.4 10.9-5.7 3.7.4 5.2 1.2 7.8 4.2 1.7 2 3.4 5 3.7 6.6l1.2 5.9c.6 3.3 2.4 3.9 4.4 1.5.7-.8 2.8-1.5 4.7-1.5 4.5 0 10.6 5.8 12.2 11.5 1.5 5.5 1.3 27.4-.4 36.7-1.6 9.5-5.6 21.6-9.3 28.3-4.8 8.9-17.6 15-36.8 17.6-16.5 2.2-24.1.2-41.7-10.8-11.5-7.3-20.5-15.4-24.2-21.8-3.3-5.7-5.5-15.1-5.5-23.7 0-9.6 2.5-14.1 8.2-14.6 3.6-.3 3.7-.3 4.4 4.4.3 2.5.4 7.3.1 10.5-.7 6.5.4 8.2 2.9 4.4 1.4-2.1 1.6-4.2 1.2-11.3-.7-11-5.2-23.8-15.7-44.2-13.4-26.1-15.1-29.8-16.7-36.2-.9-3.5-1.4-8.1-1.1-10.7 1.1-9.6 11-13.3 19.5-7.2zm112.7 146.1c4.1 7.9.2 17.7-9.6 24-10.5 6.8-29.3 11.6-40.5 10.5-7.8-.8-17.4-5.2-20.3-9.4-1.9-2.6-4.5-9.1-3.7-9.1.1 0 2.7.9 5.9 2 3.9 1.4 8.2 2 13.9 2 22.1 0 42.6-7.7 49.5-18.6 1.5-2.4 2.9-4.4 3-4.4s.9 1.3 1.8 3z"/></defs></svg>
